!!!OTL: ES WOLLT EIN MAEGDLEIN WASSER HOLN
!!!ARE: Europa, Mitteleuropa, Deutschland, Brandenburg; Schlesien; Sachsen
!!!SCT: E0117
!!!YEM: Copyright 1995, estate of Helmut Schaffrath.
**kern
*ICvox
*Ivox
*M2/4
*k[]
*C:
{8G
=1
8c
8G
8E
8G
=2
8.c
16c
8c}
{8e
=3
8.d
16c
8B
8A
=4
8A
8G
8G
8r}
=5
{8E
8F
8G
8r
=6
8E
8F
8G}
{8G
=7
8c
8c
8d
8d
=8
8G
16A
16B
8c}
==
!!!AGN: erzaehlendes Volks - Lied, Schalk -, Schelmen - Lied, Liebe, Ballade ?
!!!ONB: ESAC (Essen Associative Code) Database: ERK1
!!!AMT: simple duple
!!!AIN: vox
!!!EED: Helmut Schaffrath
!!!EEV: 1.0
*-
